build/img/landings/complex/features-2.svg

<svg width="727" height="535" fill="none" xmlns="http://www.w3.org/2000/svg"><path d="M649.5 365l-36-256-89 97.5V331L476 409.5 330 420l-46.5-72L184 469 76 443.5-13 1" stroke="#000" stroke-width="4"/><path d="M427.902 292.5c0 14.028-11.373 25.4-25.4 25.4-14.028 0-25.4-11.372-25.4-25.4 0-14.028 11.372-25.4 25.4-25.4 14.027 0 25.4 11.372 25.4 25.4z" fill="#7B61FF"/><path d="M445.398 215.734h-85.796c-18.676 0-33.868 15.192-33.868 33.868v85.796c0 18.676 15.192 33.868 33.868 33.868h85.796c18.676 0 33.868-15.192 33.868-33.868v-85.796c0-18.676-15.192-33.868-33.868-33.868zm-42.898 119.1c-23.343 0-42.334-18.991-42.334-42.334 0-23.343 18.991-42.334 42.334-42.334 23.343 0 42.334 18.991 42.334 42.334 0 23.343-18.991 42.334-42.334 42.334zm48.543-82.41a8.466 8.466 0 01-8.467-8.467 8.466 8.466 0 018.467-8.467 8.466 8.466 0 018.467 8.467 8.466 8.466 0 01-8.467 8.467z" fill="#7B61FF"/><path d="M470.799 148H334.201C292.185 148 258 182.185 258 224.201v136.598C258 402.815 292.185 437 334.201 437h136.598C512.815 437 547 402.815 547 360.799V224.201C547 182.185 512.815 148 470.799 148zm25.4 187.398c0 28.011-22.79 50.801-50.801 50.801h-85.796c-28.011 0-50.801-22.79-50.801-50.801v-85.796c0-28.011 22.79-50.801 50.801-50.801h85.796c28.011 0 50.801 22.79 50.801 50.801v85.796z" fill="#7B61FF"/><path d="M583.5 535c79.253 0 143.5-64.247 143.5-143.5S662.753 248 583.5 248 440 312.247 440 391.5 504.247 535 583.5 535z" fill="#212121"/><path fill-rule="evenodd" clip-rule="evenodd" d="M578.08 454.437h11.263s3.403-.373 5.139-2.246c1.599-1.719 1.548-4.947 1.548-4.947s-.22-15.113 6.794-17.338c6.915-2.193 15.793 14.606 25.204 21.065 7.117 4.888 12.524 3.816 12.524 3.816l25.164-.35s13.163-.811 6.922-11.161c-.512-.846-3.635-7.656-18.71-21.648-15.778-14.645-13.665-12.276 5.342-37.608 11.575-15.428 16.202-24.846 14.757-28.88-1.379-3.842-9.892-2.827-9.892-2.827l-28.333.177s-2.1-.287-3.658.644c-1.522.913-2.501 3.042-2.501 3.042s-4.485 11.938-10.465 22.091c-12.617 21.423-17.661 22.554-19.723 21.224-4.796-3.101-3.599-12.455-3.599-19.101 0-20.761 3.149-29.417-6.131-31.658-3.08-.745-5.347-1.236-13.223-1.315-10.109-.105-18.666.031-23.511 2.405-3.223 1.578-5.709 5.095-4.195 5.297 1.873.251 6.114 1.144 8.362 4.206 2.904 3.949 2.801 12.82 2.801 12.82s1.668 24.44-3.895 27.476c-3.82 2.082-9.058-2.169-20.306-21.605-5.763-9.956-10.114-20.96-10.114-20.96s-.84-2.057-2.336-3.157c-1.816-1.333-4.354-1.757-4.354-1.757l-26.923.176s-4.042.113-5.525 1.87c-1.32 1.563-.105 4.796-.105 4.796s21.078 49.314 44.944 74.165c21.884 22.784 46.735 21.288 46.735 21.288z" fill="#fff"/><circle cx="614" cy="113" r="8.5" fill="#fff" stroke="#000" stroke-width="3"/><circle cx="183" cy="470" r="8.5" fill="#fff" stroke="#000" stroke-width="3"/><circle cx="79" cy="447" r="8.5" fill="#fff" stroke="#000" stroke-width="3"/></svg>

<svg width="727" height="535" viewBox="0 0 727 535" fill="none" xmlns="http://www.w3.org/2000/svg">
<path d="M649.5 365L613.5 109L524.5 206.5V331L476 409.5L330 420L283.5 348L184 469L76 443.5L-13 1" stroke="black" stroke-width="4"/>
<path d="M427.902 292.5C427.902 306.528 416.529 317.9 402.502 317.9C388.474 317.9 377.102 306.528 377.102 292.5C377.102 278.472 388.474 267.1 402.502 267.1C416.529 267.1 427.902 278.472 427.902 292.5Z" fill="#7B61FF"/>
<path d="M445.398 215.734H359.602C340.926 215.734 325.734 230.926 325.734 249.602V335.398C325.734 354.074 340.926 369.266 359.602 369.266H445.398C464.074 369.266 479.266 354.074 479.266 335.398V249.602C479.266 230.926 464.074 215.734 445.398 215.734ZM402.5 334.834C379.157 334.834 360.166 315.843 360.166 292.5C360.166 269.157 379.157 250.166 402.5 250.166C425.843 250.166 444.834 269.157 444.834 292.5C444.834 315.843 425.843 334.834 402.5 334.834ZM451.043 252.424C446.366 252.424 442.576 248.634 442.576 243.957C442.576 239.28 446.366 235.49 451.043 235.49C455.72 235.49 459.51 239.28 459.51 243.957C459.51 248.634 455.72 252.424 451.043 252.424Z" fill="#7B61FF"/>
<path d="M470.799 148H334.201C292.185 148 258 182.185 258 224.201V360.799C258 402.815 292.185 437 334.201 437H470.799C512.815 437 547 402.815 547 360.799V224.201C547 182.185 512.815 148 470.799 148ZM496.199 335.398C496.199 363.409 473.409 386.199 445.398 386.199H359.602C331.591 386.199 308.801 363.409 308.801 335.398V249.602C308.801 221.591 331.591 198.801 359.602 198.801H445.398C473.409 198.801 496.199 221.591 496.199 249.602V335.398Z" fill="#7B61FF"/>
<path d="M583.5 535C662.753 535 727 470.753 727 391.5C727 312.247 662.753 248 583.5 248C504.247 248 440 312.247 440 391.5C440 470.753 504.247 535 583.5 535Z" fill="#212121"/>
<path fill-rule="evenodd" clip-rule="evenodd" d="M578.08 454.437H589.343C589.343 454.437 592.746 454.064 594.482 452.191C596.081 450.472 596.03 447.244 596.03 447.244C596.03 447.244 595.81 432.131 602.824 429.906C609.739 427.713 618.617 444.512 628.028 450.971C635.145 455.859 640.552 454.787 640.552 454.787L665.716 454.437C665.716 454.437 678.879 453.626 672.638 443.276C672.126 442.43 669.003 435.62 653.928 421.628C638.15 406.983 640.263 409.352 659.27 384.02C670.845 368.592 675.472 359.174 674.027 355.14C672.648 351.298 664.135 352.313 664.135 352.313L635.802 352.49C635.802 352.49 633.702 352.203 632.144 353.134C630.622 354.047 629.643 356.176 629.643 356.176C629.643 356.176 625.158 368.114 619.178 378.267C606.561 399.69 601.517 400.821 599.455 399.491C594.659 396.39 595.856 387.036 595.856 380.39C595.856 359.629 599.005 350.973 589.725 348.732C586.645 347.987 584.378 347.496 576.502 347.417C566.393 347.312 557.836 347.448 552.991 349.822C549.768 351.4 547.282 354.917 548.796 355.119C550.669 355.37 554.91 356.263 557.158 359.325C560.062 363.274 559.959 372.145 559.959 372.145C559.959 372.145 561.627 396.585 556.064 399.621C552.244 401.703 547.006 397.452 535.758 378.016C529.995 368.06 525.644 357.056 525.644 357.056C525.644 357.056 524.804 354.999 523.308 353.899C521.492 352.566 518.954 352.142 518.954 352.142L492.031 352.318C492.031 352.318 487.989 352.431 486.506 354.188C485.186 355.751 486.401 358.984 486.401 358.984C486.401 358.984 507.479 408.298 531.345 433.149C553.229 455.933 578.08 454.437 578.08 454.437Z" fill="white"/>
<circle cx="614" cy="113" r="8.5" fill="white" stroke="black" stroke-width="3"/>
<circle cx="183" cy="470" r="8.5" fill="white" stroke="black" stroke-width="3"/>
<circle cx="79" cy="447" r="8.5" fill="white" stroke="black" stroke-width="3"/>
</svg>
